X: 20381
Q: "Moderato"
M: 3/4
L: 1/8
K: G
|:\
(GA)(BA)(GF) | E2 A2 A2 | D2 G2 (TF2{EF}y) | G6 :|
|:\
(GA)(Bc)(de) | d2 c2 B2 | (AB)(cd)(cd) | c2 B2 A2 |\
(g2 b2) d'2 | (b2 g2) .g2 | a>b c'2 a2 | f2 d2 d2 |\
(ga)(ba)(gf) | e2 c2 c2 | d2 g2 (Tf2{ef}y) | g6 :|


